X: 14
T: Vu bist du geveyn far prohibishn
N: From transcription by Glenn Dickson
Z: 2003 John Chambers <jc@trillian.mit.edu>
M: 4/4
L: 1/8
K: Dm
|: A,DE \
| "Dm"E/G/F FF- FF ED | "A7"D/F/E EE- EE D^C \
| "Bb"^CD2 D (3CDE (3DCB, | "A"A,2 A2 A/G/F F/E/D |
| "Dm"E/G/F FF- FF ED | "Gm"^FG DG- GG =FE \
| "A"EF ^GA A/=G/F F/E/D | "Dm"D4 z :|
|: CFG \
| "F"AA AA- (3AGA (3BAG | F4 zCFG \
| ^GA AA AB cB | A8 |
| "Gm"B4 zBAG | "Dm"A4 zAGF \
| "A"EF ^GA A/=G/F F/E/D | "Dm"D4 z :|
|: DFA \
| "Dm"d4 d4 | d2 d2 d2 d2 \
| "Dm"d2 Ad fe d2 | "F"c3 c- cB AG \
| "C7"FG2 F c>c (3BAG | "F"A8 |
| "Dm"d2 Ad fe d2 | "F"c3 c- cB AG \
| "A"EF ^GA A/=G/F F/E/D | "Dm"D4 z :|
